X:313
T:Haydi Haydi Sari Kiz
T:Come on, blonde girl
Z:Jack Campin, http://www.campin.me.uk/
F:Jack Campin's Nine-Note Tunebook
% last edit 03-02-2013
B:Eftal Dodur, Meshur Oyun Havalari
N:dance song from Artvin
N:song phrases are interspersed with instrumentals
N:needs a drum accompaniment
M:5/8
L:1/16
Q:5/8=56
N:tempo taken from a YouTube video by Orhan Hakalmaz
K:APhr
"^Instrumental"\
|:AGA^F G2AF`GE| A4   A2 A4  |\
  AGA^F G2AF`GE| A4   A2 A4 :|
"^Voice"\
 ^c2d2  d2d4   |^c2d2 c2`B2A2|\
  A4    B2A2`G2| A2B2 d2^c2B2|
  A3G   A2G2^FG| A4   A2 A4  |\
  AGA^F G2AF`GE| A4   A2 A4 ||
"^Instrumental"\
  AGA^F G2AFGE | A4   A2 A4 ||\
"^Voice"\
 =B2c2  c2c4   |=B2c2 B2_B2A2|
  A4    B2A2`G2| A2B2 d2^c2B2|\
  A3G   A2G2^FG| A4   A2 A4  |
  AGA^F G2AF`GE| A4   A2 A4 ||\
"^Instrumental"\
  AGA^F G2AF`GE| A4   A2 A4  |
|:AGA^F G2AF`GE| A4   A2 A4  |\
  AGA^F G2AF`GE| A4   A2 A4 :|

